X: 1
T: FAGIN'S HOLIDAY -- JIG
B: Ryan's Mammoth Collection of Fiddle Tunes
R: jig
M: 6/8
L: 1/8
Z: Contributed 20000913181056 by John Chambers John.Chambers:weema.com
K: F
vkf2z ukd2z | vcAF F2z | vkf2z ukg2z | vafd d2z \
| fgf fed | cAF F2z | kG2z kA2z | FDD D2z :|
|: (vA2c) (uG2c) | (A2c) (G2c) | (A2c) (d2g) | ecc c2z \
| kf2z kg2z | agf edc | def (c2.B) | AFF F2z :|
